X:1
T:01 - Non vidi mai
T:Luca Marenzio (1556 - 1599) 1º Libro di Madrigali a quattro voci (Venetia, 1592)
T:Francesco Petrarca (1304 - 1374)
T:01 - Non vidi mai
T:©  2018 Ed. Marcos Mato
T:©  2018 Ed. Marcos Mato
T:©  2018 Ed. Marcos Mato
T:©  2018 Ed. Marcos Mato
T:©  2018 Ed. Marcos Mato
T:©  2018 Ed. Marcos Mato
C:Luca Marenzio (1556 - 1599)
C:1º Libro di Madrigali a quattro voci (Venetia, 1592)
Z:Francesco Petrarca (1304 - 1374)
Z:©  2018 Ed. Marcos Mato
%%score [ 1 2 3 4 ]
L:1/8
M:4/4
K:F
V:1 alto1 nm="Soprano" snm="S."
V:2 alto nm="Alto" snm="A."
V:3 tenor transpose=-12 nm="Tenor" snm="T."
V:4 bass nm="Basso" snm="B."
V:1
 G4 | [Dd]2 |[M:4/2] G8 B8 | A8 G2 c2 G3 G | A2 B2 A4 D4 z2 d2 | D2 E2 F2 G2 A2 B2 c2 A2 | %6
w: ||Non vi-|di mai do- po not-|tur- na piog- gia, non|vi- di mai do- po not- tur- na|
 BAGA Bcd=B ^c2 d4 c2 | d6 =c_B A8- | A8 z4 z2 F2 | A3 B c4 z4 A4- | A2 G2 E4 E2 F2 G2 A2 | %11
w: piog- * * * * * * * * * *|gia _ _ _|_ et|fiam- meg- giar, gir|_ per l'ae- re se- re- no|
 F2 G2 A8 G2 E2 | F3 G A4 B4 A2 B2 | c4 d2 B4 AG A4 | G8 z2 G2 G2 A2 | B4 A2 G2 F4 G2 G2 | %16
w: stel- le\_er- ran- ti, e|fiam- meg- giar fra la rug-|giad' e'l gie- * * *|lo, chi non ha-|vess' i be- gl'oc- chi da-|
 A4 D4 z2 D2 F2 G2 | A4 c2 B2 A4 G2 F2 | _E8 D4 d4- | d4 c4 B4 A4- | A2 A2 G8 F4- | F4 E8 D4 | %22
w: van- ti, chi non ha-|vess' i be- gl'oc- chi da-|van- ti o-|* ve la stan-|* ca mia vi-|* ta s'ap-|
 G16 | ^F8 z8 | z8 z4 B2 Bc | d3 c B2 d2 c2 B2 A4 | G4 z2 B2 c4 d4 | G2 A2 B2 G2 A2 c4 =B2 | %28
w: pog-|gia,|qual io gli|vi- di\_a l'om- bra d'un bel ve-|lo; e si co-|me di lor bel- lez- ze\_il cie-|
 c4 z2 A2 F4 c4 | A2 B2 c2 A2 B2 G2 c4 | d4 z2 d2 GABG A3 A | B4 z2 d2 ^c3 c d4 | z4 F4 F4 F4 | %33
w: lo, e si co-|me di lor bel- lez- ze\_il cie-|lo splen- de- * * * a quel|di, splen- dea quel di,|co- si ba-|
 G4 A4 B8 | A2 c2 A2 c2 c3 B A2 A2 | G2 F2 E4 D2 d2 B2 d2 | c3 B A4 z4 z2 A2 | G2 F2 E4 D8 | %38
w: gna- ti\_an- co-|ra li veg- gio sfa- vil- lar, ond'|io sem- pr'ar- do, li veg- gio|sfa- vil- lar, ond'|io sem- pr'ar- do,|
 z4 F4 F4 F4 | G4 A4 B8 | A2 F2 D2 F2 F3 E D2 d2 | c2 B2 A4 G2 B2 G2 B2 | B3 c d4 z8 | %43
w: co- si ba-|gna- ti\_an- co-|ra li veg- gio sfa- vil- lar ond'|io sem- pr'ar- do, li veg- gio|sfa- vil- lar,|
 z4 z2 d2 B2 G2 B3 c | d4 z2 d2 B2 d2 d3 c | B2 B2 A2 G4"^#" ^FE F4 | G16 |] %47
w: li veg- gio sfa- vil-|lar, li veg- gio sfa- vil-|lar ond' io sem- * * pr'ar-|do.|
V:2
 G4 | [F,B]2 |[M:4/2] z4 G4 G,2 A,2 B,2 C2 | D2 E2 F2 D2 EDCD EFGE | ^F2 G4 F2 G8 | %5
w: ||Non vi- di mai do-|po not- tur- na piog- * * * * * * *|* * * gia,|
 z4 D4 C2 D2 E2 =F2 | G2 E2 D2 G2 F2 ED E4 | D8 z8 | z8 z4 z2 D2 | F3 G A4 z4 A,4- | %10
w: non vi- di mai do-|pò not- tur- na piog- * * *|gia|e|fiam- meg- giar, gir|
 A,2 B,2 C4 C2 D2 E2 C2 | D2 E2 F8 E4 | z4 z2 C2 D3 E F4 | _E4 D2 D2 C4 F4 | =E3 D/C/ D4 E4 z2 C2 | %15
w: _ per l'ae- re se- re- no|stel- le\_er- ran- ti,|e fiam- meg- giar|fra la rug- giad' e'l|gie- * * * lo, chi|
 D2 B,2 C2 G,2 B,2 A,3 G, G,2- | G,2 ^F,2 G,4 D4 D2 E2 | =F4 E3 E F2 C3 G, B,2- | %18
w: non ha- vess' i begl' oc- chi da-|* van- ti, chi non ha-|vess' i begl' oc- chi da- van-|
 B,2 A,G, A,4 B,6 A,G, | F,8 z4 F4- | F4 E4 D8 | C6 C2 B,4 B,4- | B,2 C2 D4 G,8 | A,8 z8 | %24
w: |ti o-|* ve la|stan- ca mia vi-|* ta s'ap- pog-|gia,|
 z8 z4 D2 DE | F3 E D2 B2 A2 G2 ^F4 | G2 =FE D4 z8 | z4 G4 F4 D4 | C2 D2 E2 C2 D2 F4 E2 | %29
w: qual- io gli|vi- di\_a l'om- bra d'un bel ve-|* * * lo;|e si co-|me di lor bel- lez- ze\_il cie-|
 F4 z2 C2 _E4 E4 | D2"^b" _E2 F2 D2"^b" E2 G4 ^F2 | G4 z2 G2 =E3 E D4 | z4 D4 D4 D4 | E4 F4 F8 | %34
w: lo, e si co-|me di lor bel- lez- ze\_il cie-|lo splen- dea quel di,|co- si ba-|gna- ti\_an- co-|
 F2 A2 F2 A2 A3 G F2 F2 | E2 D2 ^C4 D8 | z2 A2 F2 A2 A3 G F4 | z4 z2 A2 F2 D2 F3 G | %38
w: ra li veg- gio sfa- vil- lar, ond'|io sem- pr'ar- do,|li veg- gio sfa- vil- lar,|li veg- gio sfa- vil-|
 A2 A,2 B,2 A,2 A,3 G, F,2 F2 | E2 D2 C4 B,3 C D4 | z4 F4 D4 F4 | E4 F4 G8 | %42
w: lar, li veg- gio sfa- vil- lar, ond'|io sem- pr'ar- * * do,|co- si ba-|gna- ti\_an- co-|
 F2 D2 B,2 D2 D3 C B,2 F2 | A2 G2 ^F4 G8 | z2 D2 B,2 D2 D3 C B,2 D2- | D2 G2 _E4 D8 | D16 |] %47
w: ra li veg- gio sfa- vil- lar, ond'|io sem- pr'ar- do,|li veg- gio sfa- vil- lar, ond'|_ io sem- pr'ar-|do.|
V:3
 G,4 | [C,F]2 |[M:4/2] z16 | z16 | z8 G,8 | B,8 A,8 | G,2 C2 G,3 G, A,2 B,2 A,4 | D,4 D6 C2 A,4 | %8
w: ||||Non|vi- di|mai do- po not- tur- na piog-|gia gir per l'ae-|
 A,2 B,2 C2 D2 B,2 C2 D4 | C4 z2 C2 A,3 G, F,4 | z16 | z4 z2 F,2 A,3 B, C4 | B,4 A,3 G, F,4 F,4 | %13
w: re se- re- no stel- le\_er- ran-|ti, e fiam- meg- giar,||e fiam- meg- giar|fra la rug- gia- da|
 z2 C2 F6 ED C2 D2 | =B,2 C4 B,2 C4 z4 | z8 z2 F2 E2 D2 | C4 B,2 A,2 G,4 F,2 E,2 | D,4 C,4 z8 | %18
w: e'l gie- * * * *|* * * lo,|chi non ha-|vess'- i begl' oc- chi da-|van- ti|
 z8 z4 B,4- | B,4 A,4 D8 | C6 C2 B,8 | A,8 G,8 | B,8 C8 | D8 B,2 B,C D3 C | B,2 D2 C2 B,2 A,4 G,4 | %25
w: o-|* ve la|stan- ca mia|vi- ta|s'ap- pog-|gia, qual' io gli vi- di\_à|l'om- bra d'un bel ve- lo;|
 z4 B,4 C4 D4 | G,2 A,2 B,2 G,2 A,2 C4 =B,2 | C4 z2 C2 F,G,A,F, G,3 G, | C,4 C4 B,4 G,4 | %29
w: e si co-|me di lor bel- lez- ze\_il cie-|lo splen- de- * * * a quel|di, e si co-|
 F,2 G,2 A,2 F,2 G,2 B,4 A,2 | B,8 z8 | z2 D2 G,A,B,G, A,3 A, D,4 | z4 A,4 A,4 A,4 | C4 C4 D8 | %34
w: me di lor bel- lez- ze\_il cie-|lo|splen- de- * * * a quel di,|co- si ba-|gna- ti\_an- co-|
 C4 F,4 F,4 F,4 | G,4 A,4 B,8 | A,2 C2 D2 C2 C3 B, A,2 F2 | E2 D2 ^C4 D2 F2 B,2 D2 | %38
w: ra, co- si ba-|gna- ti\_an- co-|ra li veg- gio sfa- vil- lar, ond'|io sem- pr'ar- do, li veg- gio|
 =C3 C D2 C2 C4 B,2 A,2- | A,G, G,4 ^F,2 G,8 | z4 B,4 B,4 B,4 | C4 D4 _E8 | %42
w: sfa- vil- lar, ond' io sem- pr'ar-|* * * * do,|co- si ba-|gna- ti\_an- co-|
 D2 F2 D2 F2 F3"^b" _E D2 D2 | C2 B,2 A,4 G,8 | z4 z2 F2 D2 F2 F3"^b" _E | D2 D2 C2 B,2 A,8 | %46
w: ra li veg- gio sfa- vil- lar, ond'|io sem- pr'ar- do,|li veg- gio sfa- vil-|lar, ond' io sem- pr'ar-|
 G,16 |] %47
w: do.|
V:4
 D,4 | [F,,C]2 |[M:4/2] z16 | z16 | z16 | z16 | z16 | z4 D,6 E,2 F,4 | %8
w: |||||||Gir per l'ae-|
 F,2 G,2 A,2 F,2 G,2 A,2 B,4 | F,4 z2 F,2 F,3 E, D,4 | z16 | z8 z4 z2 C,2 | %12
w: re se- re- no stel- le\_er- ran-|ti, e fiam- meg- giar,||e|
 D,3 E, F,4 B,,4 D,2 D,2 | C,4 B,,4 F,8 | G,8 z2 C2 B,2 A,2 | G,4 F,2 E,2 D,4 C,2 B,,2 | %16
w: fiam- meg- giar fra la rug-|giad' e'l gie-|lo, chi non ha-|vess' i begl' oc- chi da-|
 A,,4 G,,4 z2 B,2 A,2 G,2 | F,4 A,2 G,2 F,4 _E,2 D,2 | C,8 B,,8 | z16 | z16 | z8 z4 G,4 | %22
w: van- ti, chi non ha-|vess' i begl' oc- chi da-|van- ti|||s'ap-|
 G,6 F,2 _E,8 | D,8 G,2 G,A, B,3 A, | G,2 B,2 A,2 G,2 ^F,4 G,4 | z16 | z4 G,4 F,4 D,4 | C,4 z4 z8 | %28
w: pog- * *|gia, qual io gli vi- di\_à|l'om- bra d'un bel ve- lo;||e si co-|me,|
 z4 A,,4 B,,4 C,4 | F,,4 F,4 _E,4 C,4 | B,,2 C,2 D,2 B,,2 C,2 G,,2 D,4 | G,,8 z8 | D,8 D,4 D,4 | %33
w: e si co-|me, e si co-|me di lor bel- lez- ze\_il cie-|lo,|co- si ba-|
 C,4 F,4 B,,8 | F,8 z8 | z16 | z4 F,4 F,4 F,4 | G,4 A,4 B,8 | A,2 F,2 D,2 F,2 F,3 E, D,2 D,2 | %39
w: gna- ti\_an- co-|ra,||co- si ba-|gna- ti\_an- co-|ra li veg- gio sfa- vil- lar, ond'|
 C,2 B,,2 A,,4 G,,2 G,2 B,2 G,2 | D,3 C, B,,4 z8 | z16 | B,,8 B,,4 B,,4 | C,4 D,4 _E,8 | %44
w: io sem- pr'ar- do, li veg- gio|sfa- vil- lar,||co- si ba-|gna- ti\_an- co-|
 D,2 B,2 G,2 B,2 B,3 C D2 D,2 | G,4 C,4 D,8 | G,,16 |] %47
w: ra li veg- gio sfa- vil- lar, ond'|io sem- pr'ar-|do.|

